autogermania/dist/img/svg/rwd.svg

<svg xmlns="http://www.w3.org/2000/svg" width="19" height="27"><path fill-rule="evenodd" d="M15.798 7.639h2.104c.605 0 1.098-.497 1.098-1.109V1.107c0-.611-.493-1.108-1.098-1.108h-2.103c-.606 0-1.098.497-1.098 1.108v2.191h-3.382A1.896 1.896 0 009.5 1.909c-.865 0-1.595.588-1.82 1.389H4.298V1.107c0-.611-.492-1.108-1.097-1.108H1.097c-.605 0-1.098.497-1.098 1.108V6.53c0 .612.493 1.109 1.098 1.109h2.104c.605 0 1.097-.497 1.097-1.109V4.34H7.68a1.908 1.908 0 001.304 1.316v8.674c-.802.293-1.376 1.262-1.376 2.444s.574 2.15 1.376 2.445v2.123a1.908 1.908 0 00-1.304 1.316H4.298v-2.191c0-.611-.492-1.108-1.097-1.108H1.097c-.605 0-1.098.497-1.098 1.108v5.424c0 .611.493 1.108 1.098 1.108h2.104c.605 0 1.097-.497 1.097-1.108V23.7H7.68c.225.8.955 1.389 1.82 1.389.864 0 1.594-.589 1.819-1.389h3.382v2.191c0 .611.492 1.108 1.097 1.108h2.104c.605 0 1.097-.497 1.097-1.108v-5.424c0-.611-.492-1.108-1.097-1.108h-2.104c-.605 0-1.097.497-1.097 1.108v2.191h-3.382a1.91 1.91 0 00-1.304-1.316v-2.123c.803-.295 1.376-1.263 1.376-2.445 0-1.181-.573-2.15-1.376-2.444V5.656a1.91 1.91 0 001.304-1.316h3.382v2.19c0 .612.492 1.109 1.097 1.109zM3.266 6.53a.066.066 0 01-.065.067H1.097a.067.067 0 01-.066-.067V1.107c0-.036.03-.066.066-.066h2.104c.036 0 .065.03.065.066V6.53zm7.093 16.649a.865.865 0 01-.859.868.865.865 0 01-.86-.868c0-.479.386-.868.86-.868.473 0 .859.389.859.868zM9.5 18.27c-.407 0-.86-.615-.86-1.496s.453-1.495.86-1.495c.406 0 .859.614.859 1.495 0 .881-.453 1.496-.859 1.496zm0-13.583a.866.866 0 01-.86-.868c0-.479.386-.868.86-.868.473 0 .859.389.859.868a.865.865 0 01-.859.868zm6.233-3.58c0-.036.029-.066.065-.066h2.104c.037 0 .066.03.066.066V6.53c0 .037-.03.067-.066.067h-2.104a.066.066 0 01-.065-.067V1.107z"/></svg>

<svg 
 xmlns="http://www.w3.org/2000/svg"
 xmlns:xlink="http://www.w3.org/1999/xlink"
 width="19px" height="27px">
<path fill-rule="evenodd"  fill="rgb(0, 0, 0)"
 d="M15.798,7.639 L17.902,7.639 C18.507,7.639 19.000,7.142 19.000,6.530 L19.000,1.107 C19.000,0.496 18.507,-0.001 17.902,-0.001 L15.799,-0.001 C15.193,-0.001 14.701,0.496 14.701,1.107 L14.701,3.298 L11.319,3.298 C11.094,2.497 10.364,1.909 9.500,1.909 C8.635,1.909 7.905,2.497 7.680,3.298 L4.298,3.298 L4.298,1.107 C4.298,0.496 3.806,-0.001 3.201,-0.001 L1.097,-0.001 C0.492,-0.001 -0.001,0.496 -0.001,1.107 L-0.001,6.530 C-0.001,7.142 0.492,7.639 1.097,7.639 L3.201,7.639 C3.806,7.639 4.298,7.142 4.298,6.530 L4.298,4.340 L7.680,4.340 C7.859,4.975 8.355,5.476 8.984,5.656 L8.984,14.330 C8.182,14.623 7.608,15.592 7.608,16.774 C7.608,17.956 8.182,18.924 8.984,19.219 L8.984,21.342 C8.355,21.522 7.859,22.023 7.680,22.658 L4.298,22.658 L4.298,20.467 C4.298,19.856 3.806,19.359 3.201,19.359 L1.097,19.359 C0.492,19.359 -0.001,19.856 -0.001,20.467 L-0.001,25.891 C-0.001,26.502 0.492,26.999 1.097,26.999 L3.201,26.999 C3.806,26.999 4.298,26.502 4.298,25.891 L4.298,23.700 L7.680,23.700 C7.905,24.500 8.635,25.089 9.500,25.089 C10.364,25.089 11.094,24.500 11.319,23.700 L14.701,23.700 L14.701,25.891 C14.701,26.502 15.193,26.999 15.798,26.999 L17.902,26.999 C18.507,26.999 18.999,26.502 18.999,25.891 L18.999,20.467 C18.999,19.856 18.507,19.359 17.902,19.359 L15.798,19.359 C15.193,19.359 14.701,19.856 14.701,20.467 L14.701,22.658 L11.319,22.658 C11.140,22.024 10.644,21.522 10.015,21.342 L10.015,19.219 C10.818,18.924 11.391,17.956 11.391,16.774 C11.391,15.593 10.818,14.624 10.015,14.330 L10.015,5.656 C10.644,5.475 11.140,4.975 11.319,4.340 L14.701,4.340 L14.701,6.530 C14.701,7.142 15.193,7.639 15.798,7.639 ZM3.266,6.530 C3.266,6.567 3.237,6.597 3.201,6.597 L1.097,6.597 C1.061,6.597 1.031,6.567 1.031,6.530 L1.031,1.107 C1.031,1.071 1.061,1.041 1.097,1.041 L3.201,1.041 C3.237,1.041 3.266,1.071 3.266,1.107 L3.266,6.530 L3.266,6.530 ZM10.359,23.179 C10.359,23.658 9.973,24.047 9.500,24.047 C9.026,24.047 8.640,23.658 8.640,23.179 C8.640,22.700 9.026,22.311 9.500,22.311 C9.973,22.311 10.359,22.700 10.359,23.179 ZM9.500,18.270 C9.093,18.270 8.640,17.655 8.640,16.774 C8.640,15.893 9.093,15.279 9.500,15.279 C9.906,15.279 10.359,15.893 10.359,16.774 C10.359,17.655 9.906,18.270 9.500,18.270 ZM9.500,4.687 C9.026,4.687 8.640,4.297 8.640,3.819 C8.640,3.340 9.026,2.951 9.500,2.951 C9.973,2.951 10.359,3.340 10.359,3.819 C10.359,4.297 9.973,4.687 9.500,4.687 ZM15.733,1.107 C15.733,1.071 15.762,1.041 15.798,1.041 L17.902,1.041 C17.939,1.041 17.968,1.071 17.968,1.107 L17.968,6.530 C17.968,6.567 17.938,6.597 17.902,6.597 L15.798,6.597 C15.762,6.597 15.733,6.567 15.733,6.530 L15.733,1.107 Z"/>
</svg>
